X:0992
T:A Jig
M:9/8
L:1/8
Q:3/8=120
I: :: :|
Z:Jack Campin * www.campin.me.uk * 2009
K:G Lydian
e|gdB BGB B2e|gdB BGB AAe|gdB BGB Bcd|cde BGB A2:|
e|GGd BGB B2e|FGd BGB AAe|GGd BGB cde|cAe BGB A2:|
<end>
<start>
